X:1
T:Ocooe, 88.10.8 D
T:Ocooe, 88.10.8 D
T:Arthur Reneau, 1919
T:Public Domain Courtesy of the Cyber Hymnal™
C:Arthur Reneau, 1919
Z:Public Domain
Z:Courtesy of the Cyber Hymnal™
%%score ( 1 2 ) ( 3 4 )
L:1/8
Q:1/4=92
M:6/8
K:G
V:1 treble 
V:2 treble 
V:3 bass 
V:4 bass 
V:1
 [B,D] | [DG][DG][DG] [DB][B,G][CE] | [B,D]3- [B,D]2 D | [DG][DG][DG] [EB][E^A][EB] | %4
 [Fd]3- [Fd]2 [Gd] | [Ge][Gd][GB] [DG]2 [GB] | [EA][EG][CE] [B,D]2 D | %7
 [B,G][B,G][B,G] [DB][DG][DA] | [DG]3- [DG]2 [DB] | [Ec][Ec][Ec] [EG][EG][EA] | [DB]3- [DB]2 [EB] | %11
 [Gd][Gd][Gd] [GB][DA][EG] | [FA]3- [FA]2 [Fd] | [Ge][Gd][GB] [DG]2 [GB] | [EA][EG][CE] [B,D]2 D | %15
 [B,G][B,G][B,G] [DB][DG][DA] | [DG]3- [DG]2 |] %17
V:2
 x | x6 | x5 D | x6 | x6 | x6 | x5 D | x6 | x6 | x6 | x6 | x6 | x6 | x6 | x5 D | x6 | x5 |] %17
V:3
 [G,,G,] | [G,,B,][G,,B,][G,,B,] [G,,G,][G,,G,][G,,G,] | [G,,G,]3- [G,,G,]2 [G,B,] | %3
 [G,B,][G,B,][G,B,] [E,G,][E,F,][E,G,] | [D,A,]3- [D,A,]2 [G,B,] | [G,C][G,B,][G,D] [G,B,]2 [G,D] | %6
 [C,C][C,C][C,G,] [G,,G,]2 [B,,G,] | [E,G,][E,G,][E,G,] [D,G,][D,B,][D,C] | [G,,B,]3- [G,,B,]2 G, | %9
 [C,G,][C,G,][C,G,] [C,G,][C,G,][C,G,] | [G,,G,]3- [G,,G,]2 G, | %11
 [G,B,][G,B,][G,B,] [G,D][F,D][E,^C] | [D,D]3- [D,D]2 [D,A,] | [G,B,][G,B,][G,D] [G,B,]2 [G,D] | %14
 [C,C][C,C][C,G,] [G,,G,]2 [B,,G,] | [E,G,][E,G,][E,G,] [D,G,][D,B,][D,C] | [G,,B,]3- [G,,B,]2 |] %17
V:4
 x | x6 | x6 | x6 | x6 | x6 | x6 | x6 | x5 G, | x6 | x5 G, | x6 | x6 | x6 | x6 | x6 | x5 |] %17

